public/assets/images/lamisi.svg

<svg xmlns="http://www.w3.org/2000/svg" width="96" height="112" viewBox="0 0 96 112"><path d="M48 112C21.49 112 0 86.928 0 56S21.49 0 48 0s48 25.072 48 56-21.49 56-48 56z" fill="#E0E0E0"/><path d="M48 107.74c-23.457 0-42.473-18.6-42.473-41.542 0-22.943 19.016-41.542 42.473-41.542s42.473 18.6 42.473 41.542-19.016 41.54-42.473 41.54z" fill="#A16020"/><path d="M38.363 71.263c-1.057 0-1.914-.857-1.914-1.914 0-1.06.85-1.92 1.91-1.92s1.91.852 1.91 1.91c0 1.055-.86 1.912-1.917 1.912zm26.83 2.724c-1.058 0-1.915-.857-1.915-1.914s.857-1.914 1.914-1.914 1.914.85 1.914 1.91-.857 1.91-1.914 1.91z"/><path d="M66.13 43.82c-10.483-4.66-23.38 14.73-31.197 14.346 0 0 19.625-13.597 1.065-8.787-6.313 1.63-10.064 3.63-15.124 7.63C15.814 61 16.05 70.99 14.4 74.43c-4.8 10 10.15 21.35 10.08 21.58-.073.23-12-6.2-17.2-13 0 0-2.28-3.638-1.746-4.97.53-1.33.17-1.4-2.63-27.8-.925-8.733 6.53-14.07 4.4-16.2 0 0 1.37-.594 4.463-6.2 3.9-7.065.128-7.6 4.728-9.8 7.635-3.65 2.95-3.27 6.41-7 3.464-3.727 12-6.2 12-6.2 8.8 5.2 13.528-6.094 16.19-3.43 2.8 2.8 15.577 2.8 15.577 2.8s6.635 9.566 12.01 13.6c10.39 7.8 9.39 15.6 12.463 18.6 1.852 1.81-9.465-5.6-9.465-5.6s8.59 2.4 11.258 19.41c.75 4.775-.266 30.52-1.895 27.192-1.274-2.6-7.474 13.472-7.474 13.472s6.2-34.414-17.44-47.064z"/><path d="M51.196 75.16s8.947 8.716.237 8.257c-8.71-.458-7.985-2.25-.237-8.256z" fill="#5E3B1A"/><path d="M46.6 120.92v.333-.333z"/><path d="M42.43 92.773s6.286 8.555 13.313 1.794" stroke="#000" stroke-width="2" fill="none"/></svg>

<?xml version="1.0" encoding="UTF-8"?>
<!DOCTYPE svg PUBLIC "-//W3C//DTD SVG 1.1//EN" "http://www.w3.org/Graphics/SVG/1.1/DTD/svg11.dtd">
<svg version="1.1" xmlns="http://www.w3.org/2000/svg" xmlns:xlink="http://www.w3.org/1999/xlink" x="0" y="0" width="96" height="112" viewBox="0, 0, 96, 112">
  <g id="lamisi" transform="translate(0, 0)">
    <path d="M48,106.899 C24.543,106.899 5.527,88.301 5.527,65.358 C5.527,42.416 24.543,23.817 48,23.817 C71.457,23.817 90.473,42.416 90.473,65.358 C90.473,88.301 71.457,106.899 48,106.899 z" fill="#A16020"/>
    <path d="M38.363,71.263 C37.306,71.263 36.449,70.406 36.449,69.349 C36.449,68.292 37.306,67.435 38.363,67.435 C39.42,67.435 40.277,68.292 40.277,69.349 C40.277,70.406 39.42,71.263 38.363,71.263 z" fill="#000000"/>
    <path d="M65.192,73.987 C64.135,73.987 63.278,73.13 63.278,72.073 C63.278,71.016 64.135,70.159 65.192,70.159 C66.249,70.159 67.106,71.016 67.106,72.073 C67.106,73.13 66.249,73.987 65.192,73.987 z" fill="#000000"/>
    <path d="M66.131,43.82 C55.646,39.16 42.748,58.549 34.932,58.166 C34.932,58.166 54.557,44.569 35.997,49.379 C29.684,51.015 25.933,53.018 20.873,57.013 C15.814,61.007 16.049,70.994 14.4,74.432 C9.6,84.435 24.546,95.78 24.473,96.013 C24.4,96.245 12.473,89.813 7.273,83.013 C7.273,83.013 4.994,79.376 5.527,78.045 C6.059,76.714 5.698,76.645 2.898,50.245 C1.972,41.511 9.428,36.175 7.298,34.045 C7.298,34.045 8.667,33.45 11.76,27.845 C15.659,20.779 11.887,20.245 16.487,18.045 C24.121,14.394 19.436,14.773 22.898,11.045 C26.36,7.317 34.898,4.845 34.898,4.845 C43.698,10.045 48.424,-1.25 51.087,1.413 C53.886,4.212 66.663,4.213 66.663,4.213 C66.663,4.213 73.298,13.778 78.673,17.813 C89.063,25.613 88.063,33.413 91.136,36.413 C92.99,38.223 81.673,30.813 81.673,30.813 C81.673,30.813 90.263,33.213 92.931,50.221 C93.681,54.996 92.664,80.74 91.035,77.413 C89.761,74.813 83.561,90.885 83.561,90.885 C83.561,90.885 89.764,56.469 66.131,43.82 z" fill="#000000"/>
    <path d="M51.196,75.161 C51.196,75.161 60.143,83.876 51.433,83.417 C42.723,82.959 43.448,81.167 51.196,75.161 z" fill="#5E3B1A"/>
    <path d="M46.599,120.92 L46.599,120.92 L46.599,121.253 L46.599,121.253 L46.599,120.92 z" fill="#000000"/>
    <path d="M42.429,92.773 C42.429,92.773 48.716,101.328 55.743,94.567" fill-opacity="0" stroke="#000000" stroke-width="2"/>
    <path d="M38.363,73.249 C36.209,73.249 34.463,71.503 34.463,69.349 C34.463,67.194 36.209,65.448 38.363,65.448 C40.517,65.448 42.263,67.194 42.263,69.349 C42.263,71.503 40.517,73.249 38.363,73.249 z" fill="#000000"/>
    <path d="M65.192,75.973 C63.038,75.973 61.292,74.227 61.292,72.073 C61.292,69.918 63.038,68.172 65.192,68.172 C67.346,68.172 69.093,69.918 69.093,72.073 C69.093,74.227 67.346,75.973 65.192,75.973 z" fill="#000000"/>
  </g>
</svg>
